X: 2
T: Ducks On The Pond
M:4/4
L:1/8
K:Amix=g
(3ef^g \
| "A"a2 b2 a2 g2 | edef "G"g3d | gaba g2 d2 | "Em"edeg "A"a2 eg |
| a2 b2 a2 (3gag | "Em"edef "G"gaba | gfeB "Bm"d2B2 | "A"A3B A2 :|
|: e2 \
| "Am"E3d e2d2 | edef "G"g4 | B3d BAGA | B3d BAGD |
| "Am"E3d e2d2 | edef "G"gaba | "Em"gfec "D"d2B2 | "Am"A3B A2 :|
